public/assets/images/others/icon/06.svg

<svg width="40" height="40" viewBox="0 0 40 40" fill="none" xmlns="http://www.w3.org/2000/svg">
<path fill-rule="evenodd" clip-rule="evenodd" d="M20.7875 37.4126C20.9348 37.4708 21.0917 37.5005 21.25 37.5001C21.532 37.4984 21.8051 37.4015 22.025 37.2251L28.275 32.2251C28.4223 32.1087 28.5415 31.9606 28.6238 31.7918C28.706 31.623 28.7492 31.4378 28.75 31.2501V21.7626L33.475 17.0501C34.7561 15.7761 35.7716 14.2605 36.4625 12.5911C37.1535 10.9217 37.5061 9.13179 37.5 7.32508V5.00008C37.5 4.33704 37.2366 3.70115 36.7678 3.23231C36.2989 2.76347 35.6631 2.50008 35 2.50008H32.675C30.8683 2.49399 29.0784 2.84664 27.409 3.53757C25.7396 4.22849 24.224 5.24396 22.95 6.52508L18.2375 11.2501H8.75002C8.56124 11.2524 8.37544 11.2975 8.20658 11.3819C8.03772 11.4664 7.89017 11.588 7.77502 11.7376L2.77502 17.9876C2.6355 18.1605 2.54459 18.3674 2.51163 18.5871C2.47868 18.8068 2.50487 19.0314 2.58752 19.2376C2.66916 19.4424 2.8035 19.6219 2.97693 19.758C3.15036 19.8941 3.3567 19.982 3.57502 20.0126L12.325 21.2626L12.675 18.7626L6.08752 17.8251L9.35002 13.7501H18.75C18.9145 13.751 19.0776 13.7195 19.2299 13.6573C19.3822 13.5951 19.5207 13.5034 19.6375 13.3876L24.725 8.30008C25.7662 7.25178 27.0049 6.42036 28.3695 5.85392C29.7341 5.28748 31.1975 4.99727 32.675 5.00008H35V7.32508C35.0028 8.80257 34.7126 10.266 34.1462 11.6306C33.5797 12.9952 32.7483 14.2339 31.7 15.2751L26.6125 20.3626C26.4967 20.4794 26.405 20.6179 26.3428 20.7702C26.2806 20.9225 26.2491 21.0856 26.25 21.2501V30.6501L22.2 33.9126L21.2625 27.3251L18.7625 27.6751L20.0125 36.4251C20.0431 36.6434 20.131 36.8497 20.2671 37.0232C20.4032 37.1966 20.5827 37.3309 20.7875 37.4126ZM9.11012 29.115L19.1068 19.1183L20.8746 20.886L10.8779 30.8828L9.11012 29.115Z" fill="#132A64"/>
</svg>

<svg xmlns="http://www.w3.org/2000/svg" width="40" height="40" fill="none" viewBox="0 0 40 40"><path fill="#132a64" fill-rule="evenodd" d="M20.788 37.413a1.25 1.25 0 0 0 1.237-.187l6.25-5a1.25 1.25 0 0 0 .475-.976v-9.487l4.725-4.713A13.65 13.65 0 0 0 37.5 7.325V5A2.5 2.5 0 0 0 35 2.5h-2.325a13.65 13.65 0 0 0-9.725 4.025l-4.712 4.725H8.75a1.25 1.25 0 0 0-.975.488l-5 6.25a1.25 1.25 0 0 0 .8 2.025l8.75 1.25.35-2.5-6.587-.938L9.35 13.75h9.4a1.25 1.25 0 0 0 .887-.362L24.726 8.3a11.18 11.18 0 0 1 7.95-3.3H35v2.325a11.18 11.18 0 0 1-3.3 7.95l-5.087 5.088a1.25 1.25 0 0 0-.363.887v9.4l-4.05 3.263-.937-6.588-2.5.35 1.25 8.75a1.25 1.25 0 0 0 .774.988M9.11 29.115l9.997-9.997 1.768 1.768-9.997 9.997z" clip-rule="evenodd"/></svg>
